X:527
T:La Mourisque
Z:Jack Campin, http://www.campin.me.uk/
F:Jack Campin's Nine-Note Tunebook
% last edit 03-02-2013
C:Tielman Susato 1551
M:2/4
L:1/8
Q:1/4=80
K:F
A/B/c cc|c3  B|AF    FG|E2 C2|
A/B/c cc|c3  B|AF    GE|F3 G:|
AF    FG|AF BG|AF    FG|E2 C2|
AF    FG|AF BG|A/G/F GE|F4  :|

